icon-svg/table-shade.svg

<?xml version="1.0" encoding="UTF-8"?>
<svg width="32px" height="32px" viewBox="0 0 32 32" version="1.1" fill="#44739e" xmlns="http://www.w3.org/2000/svg" xmlns:xlink="http://www.w3.org/1999/xlink">
            <path d="M18.873,7.6884 C17.302,8.0914 14.719,8.0914 13.145,7.6884 C11.594,7.2914 11.642,6.6584 13.214,6.2744 C14.764,5.8964 17.248,5.8964 18.8,6.2744 C20.373,6.6584 20.423,7.2914 18.873,7.6884 M24.951,14.9344 L22.252,5.6914 L22.219,5.5954 C21.968,5.0144 20.743,4.4634 18.552,4.1674 C16.889,3.9444 15.197,3.9444 13.533,4.1684 C11.346,4.4634 10.123,5.0144 9.875,5.5954 L9.827,5.7464 L7.052,14.9304 C7.012,15.0604 6.987,15.1994 7.007,15.3344 C7.233,16.8554 9.981,18.0814 15.007,18.2234 L15.007,23.0274 C12.561,23.1564 10.611,23.7454 10.123,24.5004 C10.043,24.6204 10.003,24.7474 10.003,24.8754 L10.003,26.1254 C10.003,27.1604 12.691,28.0004 16.008,28.0004 C19.324,28.0004 22.014,27.1604 22.014,26.1254 L22.014,24.8754 C22.014,23.9464 19.848,23.1774 17.009,23.0284 L17.009,18.2234 C22.03,18.0794 24.772,16.8514 24.993,15.3294 C25.013,15.1974 24.988,15.0624 24.951,14.9344"></path>
</svg>

<svg xmlns="http://www.w3.org/2000/svg" fill="#44739e" viewBox="0 0 24 24"><path d="M18.873 7.6884c-1.571.403-4.154.403-5.728 0-1.551-.397-1.503-1.03.069-1.414 1.55-.378 4.034-.378 5.586 0 1.573.384 1.623 1.017.073 1.414m6.078 7.246-2.699-9.243-.033-.096c-.251-.581-1.476-1.132-3.667-1.428a18.87 18.87 0 0 0-5.019.001c-2.187.295-3.41.846-3.658 1.427l-.048.151-2.775 9.184c-.04.13-.065.269-.045.404.226 1.521 2.974 2.747 8 2.889v4.804c-2.446.129-4.396.718-4.884 1.473-.08.12-.12.247-.12.375v1.25c0 1.035 2.688 1.875 6.005 1.875 3.316 0 6.006-.84 6.006-1.875v-1.25c0-.929-2.166-1.698-5.005-1.847v-4.805c5.021-.144 7.763-1.372 7.984-2.894.02-.132-.005-.267-.042-.395"/></svg>
